src/assets/bold/lm-text-focus-bold.svg

<svg width="24" height="24" viewBox="0 0 24 24" fill="none" xmlns="http://www.w3.org/2000/svg" fill="currentColor">
<path d="M21 3.75V7.125C21 7.32391 20.921 7.51468 20.7803 7.65533C20.6397 7.79598 20.4489 7.875 20.25 7.875C20.0511 7.875 19.8603 7.79598 19.7197 7.65533C19.579 7.51468 19.5 7.32391 19.5 7.125V4.5H16.875C16.6761 4.5 16.4853 4.42098 16.3447 4.28033C16.204 4.13968 16.125 3.94891 16.125 3.75C16.125 3.55109 16.204 3.36032 16.3447 3.21967C16.4853 3.07902 16.6761 3 16.875 3H20.25C20.4489 3 20.6397 3.07902 20.7803 3.21967C20.921 3.36032 21 3.55109 21 3.75ZM20.25 16.125C20.0511 16.125 19.8603 16.204 19.7197 16.3447C19.579 16.4853 19.5 16.6761 19.5 16.875V19.5H16.875C16.6761 19.5 16.4853 19.579 16.3447 19.7197C16.204 19.8603 16.125 20.0511 16.125 20.25C16.125 20.4489 16.204 20.6397 16.3447 20.7803C16.4853 20.921 16.6761 21 16.875 21H20.25C20.4489 21 20.6397 20.921 20.7803 20.7803C20.921 20.6397 21 20.4489 21 20.25V16.875C21 16.6761 20.921 16.4853 20.7803 16.3447C20.6397 16.204 20.4489 16.125 20.25 16.125ZM7.125 19.5H4.5V16.875C4.5 16.6761 4.42098 16.4853 4.28033 16.3447C4.13968 16.204 3.94891 16.125 3.75 16.125C3.55109 16.125 3.36032 16.204 3.21967 16.3447C3.07902 16.4853 3 16.6761 3 16.875V20.25C3 20.4489 3.07902 20.6397 3.21967 20.7803C3.36032 20.921 3.55109 21 3.75 21H7.125C7.32391 21 7.51468 20.921 7.65533 20.7803C7.79598 20.6397 7.875 20.4489 7.875 20.25C7.875 20.0511 7.79598 19.8603 7.65533 19.7197C7.51468 19.579 7.32391 19.5 7.125 19.5ZM3.75 7.875C3.94891 7.875 4.13968 7.79598 4.28033 7.65533C4.42098 7.51468 4.5 7.32391 4.5 7.125V4.5H7.125C7.32391 4.5 7.51468 4.42098 7.65533 4.28033C7.79598 4.13968 7.875 3.94891 7.875 3.75C7.875 3.55109 7.79598 3.36032 7.65533 3.21967C7.51468 3.07902 7.32391 3 7.125 3H3.75C3.55109 3 3.36032 3.07902 3.21967 3.21967C3.07902 3.36032 3 3.55109 3 3.75V7.125C3 7.32391 3.07902 7.51468 3.21967 7.65533C3.36032 7.79598 3.55109 7.875 3.75 7.875Z" fill="black"/>
<path d="M17.5 7.75V9.75C17.5 9.94891 17.421 10.1397 17.2803 10.2803C17.1397 10.421 16.9489 10.5 16.75 10.5C16.5511 10.5 16.3603 10.421 16.2197 10.2803C16.079 10.1397 16 9.94891 16 9.75V8.5L12.75 8.53349V16.5H14C14.1989 16.5 14.3897 16.579 14.5303 16.7197C14.671 16.8603 14.75 17.0511 14.75 17.25C14.75 17.4489 14.671 17.6397 14.5303 17.7803C14.3897 17.921 14.1989 18 14 18H10C9.80109 18 9.61032 17.921 9.46967 17.7803C9.32902 17.6397 9.25 17.4489 9.25 17.25C9.25 17.0511 9.32902 16.8603 9.46967 16.7197C9.61032 16.579 9.80109 16.5 10 16.5H11.25V8.53349H8V9.78349C8 9.98241 7.92098 10.1732 7.78033 10.3138C7.63968 10.4545 7.44891 10.5335 7.25 10.5335C7.05109 10.5335 6.86032 10.4545 6.71967 10.3138C6.57902 10.1732 6.5 9.98241 6.5 9.78349V7.78349C6.5 7.58458 6.57902 7.39382 6.71967 7.25316C6.86032 7.11251 7.05109 7.03349 7.25 7.03349L16.75 7C16.9489 7 17.1397 7.07902 17.2803 7.21967C17.421 7.36032 17.5 7.55109 17.5 7.75Z" fill="black"/>
</svg>

<svg xmlns="http://www.w3.org/2000/svg" width="24" height="24" fill="currentColor" viewBox="0 0 24 24">
  <path d="M21 3.75v3.375a.75.75 0 1 1-1.5 0V4.5h-2.625a.75.75 0 1 1 0-1.5h3.375a.75.75 0 0 1 .75.75Zm-.75 12.375a.75.75 0 0 0-.75.75V19.5h-2.625a.75.75 0 1 0 0 1.5h3.375a.75.75 0 0 0 .75-.75v-3.375a.75.75 0 0 0-.75-.75ZM7.125 19.5H4.5v-2.625a.75.75 0 1 0-1.5 0v3.375a.75.75 0 0 0 .75.75h3.375a.75.75 0 1 0 0-1.5ZM3.75 7.875a.75.75 0 0 0 .75-.75V4.5h2.625a.75.75 0 0 0 0-1.5H3.75a.75.75 0 0 0-.75.75v3.375a.75.75 0 0 0 .75.75ZM17.5 7.75v2a.75.75 0 1 1-1.5 0V8.5l-3.25.033V16.5H14a.75.75 0 1 1 0 1.5h-4a.75.75 0 1 1 0-1.5h1.25V8.533H8v1.25a.75.75 0 1 1-1.5 0v-2a.75.75 0 0 1 .75-.75L16.75 7a.75.75 0 0 1 .75.75Z"/>
</svg>
